<?xml version="1.0" encoding="UTF-8"?>
<map version="1.10" tiledversion="1.12.2" orientation="orthogonal" renderorder="right-down" width="12" height="12" tilewidth="16" tileheight="16" infinite="0" nextlayerid="2" nextobjectid="1">
 <tileset firstgid="1" source="map_tileset.tsx"/>
 <layer id="1" name="Camada de Blocos 1" width="12" height="12">
  <data encoding="csv">
3,1,1,1,1,1,1,1,1,1,1,3,
3,6,6,6,6,6,6,6,6,6,7,3,
3,6,6,6,6,6,6,6,6,4,7,3,
3,6,6,4,6,6,6,6,6,6,7,3,
3,6,6,6,6,6,6,6,6,6,7,3,
3,6,6,6,6,6,6,6,6,6,7,3,
3,6,6,6,6,6,6,6,6,6,7,3,
3,6,6,6,6,6,6,6,6,6,7,3,
3,6,6,4,6,6,6,6,6,6,7,3,
3,6,6,6,6,6,6,6,6,4,7,3,
3,6,6,6,6,6,6,6,6,6,7,3,
1,1,1,1,1,1,1,1,1,1,1,1
</data>
 </layer>
</map>
