{ "compressionlevel":-1,
 "height":12,
 "infinite":false,
 "layers":[
        {
         "data":[3, 1, 1, 1, 1, 1, 1, 1, 1, 1, 2, 3,
            3, 6, 6, 6, 6, 6, 6, 6, 6, 6, 7, 3,
            3, 6, 6, 6, 6, 6, 6, 6, 4, 6, 7, 3,
            3, 6, 6, 4, 6, 6, 6, 6, 6, 6, 7, 3,
            3, 6, 6, 6, 6, 6, 6, 6, 6, 6, 7, 3,
            3, 6, 6, 6, 6, 6, 6, 6, 6, 6, 7, 3,
            3, 6, 6, 6, 6, 6, 6, 6, 6, 6, 7, 3,
            3, 6, 6, 6, 6, 6, 6, 6, 6, 6, 7, 3,
            3, 6, 6, 4, 6, 6, 6, 6, 6, 6, 7, 3,
            3, 6, 6, 6, 6, 6, 6, 6, 4, 6, 7, 3,
            3, 6, 6, 6, 6, 6, 6, 6, 6, 6, 7, 3,
            3, 3, 3, 3, 3, 3, 3, 3, 3, 3, 3, 3],
         "height":12,
         "id":1,
         "name":"Camada de Blocos 1",
         "opacity":1,
         "type":"tilelayer",
         "visible":true,
         "width":12,
         "x":0,
         "y":0
        }],
 "nextlayerid":2,
 "nextobjectid":1,
 "orientation":"orthogonal",
 "renderorder":"right-down",
 "tiledversion":"1.12.2",
 "tileheight":16,
 "tilesets":[
        {
         "firstgid":1,
         "source":"..\/tilesets\/map.tsj"
        }],
 "tilewidth":16,
 "type":"map",
 "version":"1.10",
 "width":12
}